svgs/duotone/palette.svg

<svg xmlns="http://www.w3.org/2000/svg" viewBox="0 0 512 512"><!-- Font Awesome Pro 6.0.0-alpha2 by @fontawesome - https://fontawesome.com License - https://fontawesome.com/license (Commercial License) --><defs><style>.fa-secondary{opacity:.4}</style></defs><path d="M204.312 5.037C104.906 24.444 24.812 104.351 5.187 203.447C-31.813 390.45 136.906 529.859 264 510.14C305.187 503.734 325.406 455.545 306.5 418.451C283.406 373.044 316.406 320.043 367.406 320.043H447.094C482.906 320.043 511.906 290.448 512 254.729C511.5 97.132 368.094 -26.87 204.312 5.037ZM96 320.043C78.312 320.043 64 305.73 64 288.042C64 270.354 78.312 256.042 96 256.042S128 270.354 128 288.042C128 305.73 113.687 320.043 96 320.043ZM128 192.04C110.312 192.04 96 177.728 96 160.04S110.312 128.039 128 128.039S160 142.352 160 160.04S145.687 192.04 128 192.04ZM256 128.039C238.312 128.039 224 113.726 224 96.039S238.312 64.038 256 64.038S288 78.351 288 96.039S273.687 128.039 256 128.039ZM384 192.04C366.312 192.04 352 177.728 352 160.04S366.312 128.039 384 128.039S416 142.352 416 160.04S401.687 192.04 384 192.04Z" class="fa-secondary"/><path d="M96 320.043C78.312 320.043 64 305.73 64 288.042C64 270.354 78.312 256.042 96 256.042S128 270.354 128 288.042C128 305.73 113.688 320.043 96 320.043ZM128 192.04C110.312 192.04 96 177.728 96 160.04S110.312 128.039 128 128.039S160 142.352 160 160.04S145.688 192.04 128 192.04ZM256 128.039C238.312 128.039 224 113.726 224 96.039S238.312 64.038 256 64.038S288 78.351 288 96.039S273.688 128.039 256 128.039ZM384 192.04C366.312 192.04 352 177.728 352 160.04S366.312 128.039 384 128.039S416 142.352 416 160.04S401.688 192.04 384 192.04Z" class="fa-primary"/></svg>

<svg xmlns="http://www.w3.org/2000/svg" viewBox="0 0 512 512"><!-- Font Awesome Pro 5.15.1 by @fontawesome - https://fontawesome.com License - https://fontawesome.com/license (Commercial License) --><defs><style>.fa-secondary{opacity:.4}</style></defs><path d="M204.29 5c-99.4 19.4-179.5 99.29-199.1 198.4-37 187 131.7 326.39 258.8 306.69 41.2-6.4 61.4-54.59 42.5-91.69-23.1-45.4 9.9-98.4 60.9-98.4h79.7c35.8 0 64.8-29.6 64.9-65.31C511.49 97.13 368.09-26.87 204.29 5zM96 320a32 32 0 1 1 32-32 32 32 0 0 1-32 32zm32-128a32 32 0 1 1 32-32 32 32 0 0 1-32 32zm128-64a32 32 0 1 1 32-32 32 32 0 0 1-32 32zm128 64a32 32 0 1 1 32-32 32 32 0 0 1-32 32z" class="fa-secondary"/><path d="M96 256a32 32 0 1 0 32 32 32 32 0 0 0-32-32zm32-128a32 32 0 1 0 32 32 32 32 0 0 0-32-32zm128-64a32 32 0 1 0 32 32 32 32 0 0 0-32-32zm128 64a32 32 0 1 0 32 32 32 32 0 0 0-32-32z" class="fa-primary"/></svg>
